!! 00000] TT[00
!! NN
!!!OTL: Lan gong diao
!!!ARE: Ningxia, Tongxin
!! Ethnic Group: Hui
!! I, 180
!!!SCT: C0048
!!!YEM: Copyright 1995, estate of Helmut Schaffrath.
**kern
*ICvox
*Ivox
!! Mixed meters:  3/4; 2/4
*M2/4
*k[b-e-]
*B-:
{16ff
16ff
16ff
16gg
4ccc
4ccc
=1
8.ccc
16fff
8ccc
8ccc}
=2
*M3/4
{16gg
16bb-
16gg
16ff
4gg
8.ff
16bb-
=3
*M2/4
16gg
16ff
16ee-
16dd
8cc
8r}
=4
{16ff
8ff
16gg
8ccc
16ccc
16bb-
=5
16gg
16bb-
16ff
16gg
8ccc
16bb-
16gg}
=6
*M3/4
{16ff
8ee-
16ff
4gg
8.bb-
16gg
=7
16ff
16ee-
8dd
8cc
8r}
==
!!!AGN: Xiaodiao. Changgong suku
!! Wird der Hui- Nationalitaet zugeschrieben, ist aber Han (Jiao).
!!!ONB: ESAC (Essen Associative Code) Database: CHINA
!!!AMT: irregular
!!!AIN: vox
!!!EED: Helmut Schaffrath
!!!EEV: 1.0
*-
